X:1
T: Lord Aboyne
C:
R:Strathspey
Q: 128
K:D
M:4/4
L:1/16
|:D2E2|F4 F3E F6 d2|A4 A3F E4 D3E|F4 F4 d4 F3E|F8 B4 D2E2|
F4 F3E F6 d2|A4 A3F E4 D3E|F4 F4 d4 F3E|F8 B4 d3e|
f4 f3e d4 B3A|A3B d2F2 E4 d3e|d2c2 B2A2 d4 F3E|F8 B4 d3e|
f4 f3e d4 B3A|A3B d2F2 E4 d3e|d2c2 B2A2 d4 F3E|F8 B4:|
